public/avatar/hat/104.svg

<svg xmlns:xlink="http://www.w3.org/1999/xlink" height="92.9" width="100.7" xmlns="http://www.w3.org/2000/svg"><use height="18.9" transform="translate(22.95 40.25)" width="30.8" xlink:href="#a"/><defs><g id="a"><path d="m3.5 17.85-1.25-.95Q1 15.2 1 9.9q0-4.2.35-5.75.4-1.95 1.8-3.05Q3.9.55 5 2.9q1.3 3.05 6.1 6.2l2.15 1.95.55-.8q.8-.8 2.1-.8 1.6 0 2.2 1l1.6-1.35q4.8-3.15 6.1-6.2 1.1-2.35 1.85-1.8 1.4 1.1 1.85 3.05.3 1.55.3 5.75 0 5.3-1.25 7l-1.05 1" fill="none" stroke="#000" stroke-linecap="round" stroke-linejoin="round" stroke-width="2"/><path d="M13.8-5.35q.3 1.55.3 5.75 0 5.3-1.25 7-1.4 1.95-4.2.3l-7.5-4.15-.1-.1Q1.55 1.15 4-.4q4.8-3.15 6.1-6.2 1.1-2.35 1.85-1.8 1.4 1.1 1.85 3.05" fill="#eaa73e" fill-rule="evenodd" transform="translate(15.7 9.5)"/><path d="m8.95-2.45.95.85q.95 1.1 1.15 2.15.5 2.35-.4 3.8-.55 1-1.85 1.05L5.35 3.75 4.6 2.7Q4 1.5 5.05.85q1.65-.95 3.9-3.3" fill="#ae7525" fill-rule="evenodd" transform="translate(15.7 9.5)"/><path d="M9.9 4.85q1.75 0 2.05.45.55.7-1.9 1.1L5.9 5.2 3.25 3.55l1.15-1.2q1.3-1.1 2.35-.75 1.65.55-.1 2.35l1.4-.55 2.25-.1q1.15.55-2.1 1.7l1.7-.15M-12.55-8.4q.75-.55 1.85 1.8 1.3 3.05 6.1 6.2 2.5 1.55 2.95 3.85l-.1.1-7.5 4.15q-2.8 1.65-4.2-.3-1.25-1.7-1.25-7 0-4.2.35-5.75.4-1.95 1.8-3.05" fill="#eaa73e" fill-rule="evenodd" transform="translate(15.7 9.5)"/><path d="m-9.55-2.45 3.9 3.3q1.7 1-.3 2.9L-9.4 5.4q-1.3-.05-1.85-1.05-.85-1.55-.4-3.8.2-1.05 1.2-2.15l.9-.85" fill="#ae7525" fill-rule="evenodd" transform="translate(15.7 9.5)"/><path d="M-7.9 3q-.5-1.05.55-1.4 1.05-.35 2.35.75l1.15 1.2Q-5.2 4.8-6.45 5.2l-4.2 1.2q-2.45-.4-1.9-1.1.3-.45 2.05-.45l1.7.15-1.5-.65q-1.3-.7-.6-1.05l2.25.1 1.4.55L-7.9 3" fill="#eaa73e" fill-rule="evenodd" transform="translate(15.7 9.5)"/><path d="M11.6-1.4q.5.4-.2 1.75-.95 1.7-1.85 1.7L8.6-2.1q1.5-1.85 2.05-1.7.55.1.15 1.4l-.5 1.5q.85-.85 1.3-.5" fill="#ae7525" fill-rule="evenodd" transform="translate(15.7 9.5)"/><path d="M.1-.05h.1q2.1 0 2.7 2l3.55 2.8 4.2 2.4.55 1.95-4.75-3.3.15 1.35L2.85 4.6l.35 2L.15 4-2.9 6.6l.35-2-3.75 2.55.15-1.35-4.9 3.35.7-2 4.2-2.4 3.55-2.8.6-1q.8-1 2.1-1" fill="#eaa73e" fill-rule="evenodd" transform="translate(15.7 9.5)"/><path d="m.95 2.3-1-1.25-1.05 1.2L-1.65.6.2-.05q1.4 0 1.75.6l-1 1.75" fill="#a46f23" fill-rule="evenodd" transform="translate(15.7 9.5)"/><path d="m12.75 6.1-.65.9q-.65.4-1.65.4l-3.9-1.8q2.9.85 4 .55l1.2-.65q.95-.55 1.1-.35.25.35-.1.95m-24.55.95.5-.3 4.95-1.6L-9.5 7.3q-1.1.65-1.65.65-1.35-.1-.65-.9" fill="#b98432" fill-rule="evenodd" transform="translate(15.7 9.5)"/></g></defs></svg>

<?xml version="1.0" encoding="UTF-8" standalone="no"?>
<svg xmlns:xlink="http://www.w3.org/1999/xlink" height="92.9px" width="100.7px" xmlns="http://www.w3.org/2000/svg">
  <g transform="matrix(1.0, 0.0, 0.0, 1.0, 38.65, 49.75)">
    <use height="18.9" transform="matrix(1.0, 0.0, 0.0, 1.0, -15.7, -9.5)" width="30.8" xlink:href="#shape0"/>
  </g>
  <defs>
    <g id="shape0" transform="matrix(1.0, 0.0, 0.0, 1.0, 15.7, 9.5)">
      <path d="M-12.2 8.35 L-13.45 7.4 Q-14.7 5.7 -14.7 0.4 -14.7 -3.8 -14.35 -5.35 -13.95 -7.3 -12.55 -8.4 -11.8 -8.95 -10.7 -6.6 -9.4 -3.55 -4.6 -0.4 L-2.45 1.55 -1.9 0.75 Q-1.1 -0.05 0.2 -0.05 1.8 -0.05 2.4 0.95 L4.0 -0.4 Q8.8 -3.55 10.1 -6.6 11.2 -8.95 11.95 -8.4 13.35 -7.3 13.8 -5.35 14.1 -3.8 14.1 0.4 14.1 5.7 12.85 7.4 L11.8 8.4" fill="none" stroke="#000000" stroke-linecap="round" stroke-linejoin="round" stroke-width="2.0"/>
      <path d="M13.8 -5.35 Q14.1 -3.8 14.1 0.4 14.1 5.7 12.85 7.4 11.45 9.35 8.65 7.7 L1.15 3.55 1.05 3.45 Q1.55 1.15 4.0 -0.4 8.8 -3.55 10.1 -6.6 11.2 -8.95 11.95 -8.4 13.35 -7.3 13.8 -5.35" fill="#eaa73e" fill-rule="evenodd" stroke="none"/>
      <path d="M8.95 -2.45 L9.9 -1.6 Q10.85 -0.5 11.05 0.55 11.55 2.9 10.65 4.35 10.1 5.35 8.8 5.4 L5.35 3.75 4.6 2.7 Q4.0 1.5 5.05 0.85 6.7 -0.1 8.95 -2.45" fill="#ae7525" fill-rule="evenodd" stroke="none"/>
      <path d="M9.9 4.85 Q11.65 4.85 11.95 5.3 12.5 6.0 10.05 6.4 L5.9 5.2 3.25 3.55 4.4 2.35 Q5.7 1.25 6.75 1.6 8.4 2.15 6.65 3.95 L8.05 3.4 10.3 3.3 Q11.45 3.85 8.2 5.0 L9.9 4.85" fill="#eaa73e" fill-rule="evenodd" stroke="none"/>
      <path d="M-12.55 -8.4 Q-11.8 -8.95 -10.7 -6.6 -9.4 -3.55 -4.6 -0.4 -2.1 1.15 -1.65 3.45 L-1.75 3.55 -9.25 7.7 Q-12.05 9.35 -13.45 7.4 -14.7 5.7 -14.7 0.4 -14.7 -3.8 -14.35 -5.35 -13.95 -7.3 -12.55 -8.4" fill="#eaa73e" fill-rule="evenodd" stroke="none"/>
      <path d="M-9.55 -2.45 L-5.65 0.85 Q-3.95 1.85 -5.95 3.75 L-9.4 5.4 Q-10.7 5.35 -11.25 4.35 -12.1 2.8 -11.65 0.55 -11.45 -0.5 -10.45 -1.6 L-9.55 -2.45" fill="#ae7525" fill-rule="evenodd" stroke="none"/>
      <path d="M-7.9 3.0 Q-8.4 1.95 -7.35 1.6 -6.3 1.25 -5.0 2.35 L-3.85 3.55 Q-5.2 4.8 -6.45 5.2 L-10.65 6.4 Q-13.1 6.0 -12.55 5.3 -12.25 4.85 -10.5 4.85 L-8.8 5.0 -10.3 4.35 Q-11.6 3.65 -10.9 3.3 L-8.65 3.4 -7.25 3.95 -7.9 3.0" fill="#eaa73e" fill-rule="evenodd" stroke="none"/>
      <path d="M11.6 -1.4 Q12.1 -1.0 11.4 0.35 10.45 2.05 9.55 2.05 L8.6 -2.1 Q10.1 -3.95 10.65 -3.8 11.2 -3.7 10.8 -2.4 L10.3 -0.9 Q11.15 -1.75 11.6 -1.4" fill="#ae7525" fill-rule="evenodd" stroke="none"/>
      <path d="M0.1 -0.05 L0.2 -0.05 Q2.3 -0.05 2.9 1.95 L6.45 4.75 10.65 7.15 11.2 9.1 6.45 5.8 6.6 7.15 2.85 4.6 3.2 6.6 0.15 4.0 -2.9 6.6 -2.55 4.6 -6.3 7.15 -6.15 5.8 -11.05 9.15 -10.35 7.15 -6.15 4.75 -2.6 1.95 -2.0 0.95 Q-1.2 -0.05 0.1 -0.05" fill="#eaa73e" fill-rule="evenodd" stroke="none"/>
      <path d="M0.95 2.3 L-0.05 1.05 -1.1 2.25 -1.65 0.6 0.2 -0.05 Q1.6 -0.05 1.95 0.55 L0.95 2.3" fill="#a46f23" fill-rule="evenodd" stroke="none"/>
      <path d="M12.75 6.1 L12.1 7.0 Q11.45 7.4 10.45 7.4 L6.55 5.6 Q9.45 6.45 10.55 6.15 L11.75 5.5 Q12.7 4.95 12.85 5.15 13.1 5.5 12.75 6.1" fill="#b98432" fill-rule="evenodd" stroke="none"/>
      <path d="M-11.8 7.05 L-11.3 6.75 -6.35 5.15 -9.5 7.3 Q-10.6 7.95 -11.15 7.95 -12.5 7.85 -11.8 7.05" fill="#b98432" fill-rule="evenodd" stroke="none"/>
    </g>
  </defs>
</svg>
